src/assets/facebook.svg

<svg width="21" height="21" viewBox="0 0 21 21" fill="none" xmlns="http://www.w3.org/2000/svg">
<path d="M10.5001 0C4.7011 0 0 4.72075 0 10.544C0 15.7667 3.78548 20.092 8.74886 20.9296V12.7437H6.21594V9.79796H8.74886V7.62588C8.74886 5.10564 10.2817 3.73225 12.5209 3.73225C13.5934 3.73225 14.515 3.8125 14.7826 3.84784V6.48217L13.2295 6.48292C12.012 6.48292 11.7773 7.06377 11.7773 7.91643V9.79645H14.6824L14.3035 12.7422H11.7773V21C16.9724 20.3651 21 15.9296 21 10.5409C21 4.72075 16.2989 0 10.5001 0Z" fill="white"/>
</svg>

<svg xmlns="http://www.w3.org/2000/svg" width="21" height="21" fill="none" xmlns:v="https://vecta.io/nano"><path d="M10.5 0C4.701 0 0 4.721 0 10.544c0 5.223 3.785 9.548 8.749 10.386v-8.186H6.216V9.798h2.533V7.626c0-2.52 1.533-3.894 3.772-3.894a20.82 20.82 0 0 1 2.262.116v2.634l-1.553.001c-1.217 0-1.452.581-1.452 1.434v1.88h2.905l-.379 2.946h-2.526V21C16.972 20.365 21 15.93 21 10.541 21 4.721 16.299 0 10.5 0z" fill="#fff"/></svg>
